X:119
T:The Miser's Purse
M:4/4
L:1/8
R:reel
K: Amaj
cd |: eA (3AAA cAec | dB (3BBB a2 fa | eA (3AAA cAec |dfed cAcd ::
ea ae faec | B2 bage fg | a2 ae faec | dfed cAcd :|
